BOEHME
CUT[WONI GEH UND STEH]
REG[Europa, Mitteleuropa, Oesterreich, Steiermark]
KEY[B0531  16  C 3/4]
MEL[3_4_  5_.+1+1__+2_.+1  6_.24__
    2_.1  -7_.27_.65_.4  3___
    3_4_  5_.+1+1__+2_.+1  6_.24__
    2_.1  -7_.27_.65_.-7  1__0_
    5_6_5_  5_+5_+4_5_6_5_  5_+4_+3_
    +2_+1_7_  6__+4_7_+4_7_  +1_+3_5_
    5_6_5_  5_+5_+4_5_6_5_  5_+4_+3_
    +2_+1_7_  6__+4_7_+4_7_  +1__0__ //] >>
FCT[Wander -, Heimat - Lied]
